X: 31290
T: Paddy Joe's Highland
R: barndance
M: 4/4
K: Gmajor
|:(3DEF|G2 (3GGG B>G D2|c2 (3ccc e>gd>c|
[1 B2 (3BBB c>B A2|1 G2 (3DDD G>D:|2 F2 (3DEF G2||
|:(3Bcd|g2 d>g e>gd>g|g>ab>g e2 (3def|
g2 b>a g>fe>d|1 c>de>f g2:|2 c>AF>D G2||

